X:85
T: Westmeath
S: "Treoir"
Z: B.Black
M: 6/8
L: 1/8
R: jig
K: Dmix
D | EFG A2 B | cBc E2 D | DEF GFA | GED GED |
EFG A2 B | cBc EFG | ABA GFE | FDD D2 :|
e | fed cde | fdd d2 e | fgf e2 d | cAA ABc |
def gfg | age dec | ABA GFE | FDD D2 :|
